X: 30
T:March of St Timothy
C:Judi Morningstar
M:4/4
R:reel
Q:1/2=120
L:1/4
K:G
"G"B>cdB|"D7"A>BcA|"Em"G>ABG|"Bm"GFED|"C"E>FGE|
"G"DGBd|1 "Am"c>BAG|"D7"FADc:|2"Am"c/2B/2A/2G/2"D7"FA|"G"G3||
d/2d/2|"D7"cdAc|FADd/2d/2|"G"BdGB|DGB,d/2d/2|"D7"cdAc|
FADd/2d/2|"G"dD"--"EF|"--"GABd/2d/2|"D7"cdAc|FADd/2d/2|"G"BdGB|
DGB,G|"C"E>F"C#dim"GE|"G"DGBd|"Am"c/2B/2A/2G/2 "D7"FA|"G"G2-"D7"G2||
%%newpage
